X: 11
T: Blackhaired Lass, The
Z: Erik-Fiddler
S: https://thesession.org/tunes/237#setting52162
R: reel
M: 4/4
L: 1/8
K: Amix
c2 AB cdec|(3d/d/d/d gd BGGB|cBAB cdec|dfec (3A/A/A/A AB|
c2 AB cdec|(3d/d/d/d gd BGGB|cBAB cd e/f/g|faec [E3A3] A||
B/c/d ef ~g2 eg|fdfa gfed|B/c/d ef geag|fdec (3A/A/A/A Ac|
B/c/d ef ~g2 eg|fdfa gefg|a/g/f ge fdec|dfec Afed||
cAAB cdec|dggd BGGB|cBAB cdec|dfec Afed|
c/d/c B/c/B Acec|degd BGGB|cAAB cdeg|f/g/a ec [A3E3] A||
B/c/d ef [B2g2] eg|fdfa gfed|B/c/d ef geag|fdec A3 A|
B/c/d ef ~g2 eg|fdfa gefg|afge fdec|dfec Afed||

%-------------------- TUNE SEPARATOR --------------------%

